X:91
T:Reels simple chords 32
M:3/4
L:1/8
K:D
FE [D2D,2F,2A,2] DE | F2 ED [FD,F,A,]A2 |F2< A2A | [BG,B,D]A Bc dB | AG [F2E,2^G,2B,2D2] ED |
E2 FE [A,D,F,A,]D | DD F2 ED | [FD,F,A,]A2F2< A2 |A [BG,B,D]A Bc |
dB AG [F2D,2F,2A,2] | D2 D4 | FE [D2D,2F,2A,2D,2F,2A,2] DE | F2 ED [FD,F,A,]A2 |
F2< A2A | [BG,B,D]A Bc dB | AG [F2E,2^G,2B,2D2] ED | E2 FE [A,D,F,A,]D |
DD F2 ED | [FD,F,A,]A2F2< A2 |A [BG,B,D]A Bc | dB AG [F2D,2F,2A,2] |
D2 D4 | [fD,F,A,]a2b af | de [fD,F,A,]e de | fe de [fD,F,A,]a2 |
b af de | [fE,^G,B,D]e d2 e3 |e [fD,F,A,]a2b | af de [fE,^G,B,D]e |
d2 B2 A2 | [BG,B,D]c dB AG | FE [F2D,2F,2A,2] D2 | D4 [fD,F,A,]a2 |
b af de | [fD,F,A,]e de fe | de [fD,F,A,]a2b | af de [fE,^G,B,D]e |
d2 e2>e2 | [fD,F,A,]a2b af | de [fE,^G,B,D]e d2 | B2 A2 [BG,B,D]c |
dB AG FE | [F2D,2F,2A,2] D2 D4 |


